images/3233588.svg

<?xml version="1.0" encoding="UTF-8"?>
<svg xmlns="http://www.w3.org/2000/svg" xmlns:xlink="http://www.w3.org/1999/xlink" width="300pt" height="300pt" viewBox="0 0 300 300" version="1.1">
<defs>
<g>
<symbol overflow="visible" id="glyph0-0">
<path style="stroke:none;" d="M 0.453125 1.59375 L 0.453125 -6.34375 L 4.953125 -6.34375 L 4.953125 1.59375 Z M 0.953125 1.09375 L 4.453125 1.09375 L 4.453125 -5.84375 L 0.953125 -5.84375 Z M 0.953125 1.09375 "/>
</symbol>
<symbol overflow="visible" id="glyph0-1">
<path style="stroke:none;" d="M 3.546875 -5.953125 C 2.898438 -5.953125 2.382812 -5.710938 2 -5.234375 C 1.625 -4.753906 1.4375 -4.101562 1.4375 -3.28125 C 1.4375 -2.445312 1.625 -1.789062 2 -1.3125 C 2.382812 -0.832031 2.898438 -0.59375 3.546875 -0.59375 C 4.191406 -0.59375 4.703125 -0.832031 5.078125 -1.3125 C 5.453125 -1.789062 5.640625 -2.445312 5.640625 -3.28125 C 5.640625 -4.101562 5.453125 -4.753906 5.078125 -5.234375 C 4.703125 -5.710938 4.191406 -5.953125 3.546875 -5.953125 Z M 3.546875 -6.6875 C 4.460938 -6.6875 5.195312 -6.375 5.75 -5.75 C 6.300781 -5.132812 6.578125 -4.3125 6.578125 -3.28125 C 6.578125 -2.238281 6.300781 -1.410156 5.75 -0.796875 C 5.195312 -0.179688 4.460938 0.125 3.546875 0.125 C 2.617188 0.125 1.878906 -0.179688 1.328125 -0.796875 C 0.773438 -1.410156 0.5 -2.238281 0.5 -3.28125 C 0.5 -4.3125 0.773438 -5.132812 1.328125 -5.75 C 1.878906 -6.375 2.617188 -6.6875 3.546875 -6.6875 Z M 3.546875 -6.6875 "/>
</symbol>
<symbol overflow="visible" id="glyph0-2">
<path style="stroke:none;" d="M 0.890625 -6.5625 L 2.078125 -6.5625 L 4.984375 -1.078125 L 4.984375 -6.5625 L 5.84375 -6.5625 L 5.84375 0 L 4.65625 0 L 1.75 -5.484375 L 1.75 0 L 0.890625 0 Z M 0.890625 -6.5625 "/>
</symbol>
<symbol overflow="visible" id="glyph0-3">
<path style="stroke:none;" d="M 0.890625 -6.5625 L 1.765625 -6.5625 L 1.765625 -3.875 L 5 -3.875 L 5 -6.5625 L 5.890625 -6.5625 L 5.890625 0 L 5 0 L 5 -3.125 L 1.765625 -3.125 L 1.765625 0 L 0.890625 0 Z M 0.890625 -6.5625 "/>
</symbol>
</g>
</defs>
<g id="surface38157">
<rect x="0" y="0" width="300" height="300" style="fill:rgb(100%,100%,100%);fill-opacity:1;stroke:none;"/>
<path style="fill:none;stroke-width:1.2;stroke-linecap:butt;stroke-linejoin:miter;stroke:rgb(0%,0%,0%);stroke-opacity:1;stroke-miterlimit:10;" d="M 35.25 145.5625 L 41.042969 152.441406 "/>
<path style="fill:none;stroke-width:1.2;stroke-linecap:butt;stroke-linejoin:miter;stroke:rgb(100%,0%,0%);stroke-opacity:1;stroke-miterlimit:10;" d="M 41.042969 152.441406 L 46.835938 159.316406 "/>
<path style="fill:none;stroke-width:1.2;stroke-linecap:butt;stroke-linejoin:miter;stroke:rgb(100%,0%,0%);stroke-opacity:1;stroke-miterlimit:10;" d="M 46.835938 159.316406 L 55.6875 157.734375 "/>
<path style="fill:none;stroke-width:1.2;stroke-linecap:butt;stroke-linejoin:miter;stroke:rgb(0%,0%,0%);stroke-opacity:1;stroke-miterlimit:10;" d="M 55.6875 157.734375 L 64.539062 156.15625 "/>
<path style=" stroke:none;fill-rule:nonzero;fill:rgb(100%,100%,100%);fill-opacity:1;" d="M 42.835938 153.816406 L 50.835938 153.816406 L 50.835938 164.816406 L 42.835938 164.816406 Z M 42.835938 153.816406 "/>
<g style="fill:rgb(100%,0%,0%);fill-opacity:1;">
  <use xlink:href="#glyph0-1" x="42.835938" y="162.479492"/>
</g>
<path style="fill:none;stroke-width:1.2;stroke-linecap:butt;stroke-linejoin:miter;stroke:rgb(0%,0%,0%);stroke-opacity:1;stroke-miterlimit:10;" d="M 64.539062 156.15625 L 70.65625 139.246094 "/>
<path style="fill:none;stroke-width:1.2;stroke-linecap:butt;stroke-linejoin:miter;stroke:rgb(0%,0%,0%);stroke-opacity:1;stroke-miterlimit:10;" d="M 69.132812 155.90625 L 74.023438 142.375 "/>
<path style="fill:none;stroke-width:1.2;stroke-linecap:butt;stroke-linejoin:miter;stroke:rgb(0%,0%,0%);stroke-opacity:1;stroke-miterlimit:10;" d="M 76.128906 169.910156 L 64.539062 156.15625 "/>
<path style="fill:none;stroke-width:1.2;stroke-linecap:butt;stroke-linejoin:miter;stroke:rgb(0%,0%,0%);stroke-opacity:1;stroke-miterlimit:10;" d="M 70.65625 139.246094 L 88.359375 136.085938 "/>
<path style="fill:none;stroke-width:1.2;stroke-linecap:butt;stroke-linejoin:miter;stroke:rgb(0%,0%,0%);stroke-opacity:1;stroke-miterlimit:10;" d="M 88.359375 136.085938 L 99.949219 149.839844 "/>
<path style="fill:none;stroke-width:1.2;stroke-linecap:butt;stroke-linejoin:miter;stroke:rgb(0%,0%,0%);stroke-opacity:1;stroke-miterlimit:10;" d="M 86.28125 140.1875 L 95.554688 151.191406 "/>
<path style="fill:none;stroke-width:1.2;stroke-linecap:butt;stroke-linejoin:miter;stroke:rgb(0%,0%,0%);stroke-opacity:1;stroke-miterlimit:10;" d="M 99.949219 149.839844 L 93.832031 166.75 "/>
<path style="fill:none;stroke-width:1.2;stroke-linecap:butt;stroke-linejoin:miter;stroke:rgb(0%,0%,0%);stroke-opacity:1;stroke-miterlimit:10;" d="M 93.832031 166.75 L 76.128906 169.910156 "/>
<path style="fill:none;stroke-width:1.2;stroke-linecap:butt;stroke-linejoin:miter;stroke:rgb(0%,0%,0%);stroke-opacity:1;stroke-miterlimit:10;" d="M 91.316406 162.898438 L 77.15625 165.425781 "/>
<path style="fill:none;stroke-width:1.2;stroke-linecap:butt;stroke-linejoin:miter;stroke:rgb(0%,0%,0%);stroke-opacity:1;stroke-miterlimit:10;" d="M 93.832031 166.75 L 99.625 173.625 "/>
<path style="fill:none;stroke-width:1.2;stroke-linecap:butt;stroke-linejoin:miter;stroke:rgb(0%,0%,100%);stroke-opacity:1;stroke-miterlimit:10;" d="M 99.625 173.625 L 105.417969 180.5 "/>
<path style="fill:none;stroke-width:1.2;stroke-linecap:butt;stroke-linejoin:miter;stroke:rgb(0%,0%,100%);stroke-opacity:1;stroke-miterlimit:10;" d="M 105.417969 180.5 L 114.269531 178.921875 "/>
<path style="fill:none;stroke-width:1.2;stroke-linecap:butt;stroke-linejoin:miter;stroke:rgb(0%,0%,0%);stroke-opacity:1;stroke-miterlimit:10;" d="M 114.269531 178.921875 L 123.121094 177.34375 "/>
<path style=" stroke:none;fill-rule:nonzero;fill:rgb(100%,100%,100%);fill-opacity:1;" d="M 98.417969 175 L 112.417969 175 L 112.417969 186 L 98.417969 186 Z M 98.417969 175 "/>
<g style="fill:rgb(0%,0%,100%);fill-opacity:1;">
  <use xlink:href="#glyph0-2" x="98.417969" y="183.663086"/>
  <use xlink:href="#glyph0-3" x="105.395508" y="183.663086"/>
</g>
<path style="fill:none;stroke-width:1.2;stroke-linecap:butt;stroke-linejoin:miter;stroke:rgb(0%,0%,0%);stroke-opacity:1;stroke-miterlimit:10;" d="M 123.121094 177.34375 L 128.917969 184.21875 "/>
<path style="fill:none;stroke-width:1.2;stroke-linecap:butt;stroke-linejoin:miter;stroke:rgb(0%,0%,100%);stroke-opacity:1;stroke-miterlimit:10;" d="M 128.917969 184.21875 L 134.710938 191.09375 "/>
<path style="fill:none;stroke-width:1.2;stroke-linecap:butt;stroke-linejoin:miter;stroke:rgb(0%,0%,0%);stroke-opacity:1;stroke-miterlimit:10;" d="M 127.515625 175.992188 L 132.152344 181.492188 "/>
<path style="fill:none;stroke-width:1.2;stroke-linecap:butt;stroke-linejoin:miter;stroke:rgb(0%,0%,100%);stroke-opacity:1;stroke-miterlimit:10;" d="M 132.152344 181.492188 L 136.789062 186.992188 "/>
<path style="fill:none;stroke-width:1.2;stroke-linecap:butt;stroke-linejoin:miter;stroke:rgb(0%,0%,100%);stroke-opacity:1;stroke-miterlimit:10;" d="M 129.238281 160.429688 L 126.179688 168.886719 "/>
<path style="fill:none;stroke-width:1.2;stroke-linecap:butt;stroke-linejoin:miter;stroke:rgb(0%,0%,0%);stroke-opacity:1;stroke-miterlimit:10;" d="M 126.179688 168.886719 L 123.121094 177.34375 "/>
<path style="fill:none;stroke-width:1.2;stroke-linecap:butt;stroke-linejoin:miter;stroke:rgb(0%,0%,100%);stroke-opacity:1;stroke-miterlimit:10;" d="M 134.710938 191.09375 L 143.5625 189.515625 "/>
<path style="fill:none;stroke-width:1.2;stroke-linecap:butt;stroke-linejoin:miter;stroke:rgb(0%,0%,0%);stroke-opacity:1;stroke-miterlimit:10;" d="M 143.5625 189.515625 L 152.414062 187.933594 "/>
<path style=" stroke:none;fill-rule:nonzero;fill:rgb(100%,100%,100%);fill-opacity:1;" d="M 131.710938 185.59375 L 138.710938 185.59375 L 138.710938 196.59375 L 131.710938 196.59375 Z M 131.710938 185.59375 "/>
<g style="fill:rgb(0%,0%,100%);fill-opacity:1;">
  <use xlink:href="#glyph0-2" x="131.710938" y="194.256836"/>
</g>
<path style="fill:none;stroke-width:1.2;stroke-linecap:butt;stroke-linejoin:miter;stroke:rgb(0%,0%,0%);stroke-opacity:1;stroke-miterlimit:10;" d="M 152.414062 187.933594 L 158.53125 171.023438 "/>
<path style="fill:none;stroke-width:1.2;stroke-linecap:butt;stroke-linejoin:miter;stroke:rgb(0%,0%,0%);stroke-opacity:1;stroke-miterlimit:10;" d="M 149.046875 184.804688 L 153.9375 171.277344 "/>
<path style="fill:none;stroke-width:1.2;stroke-linecap:butt;stroke-linejoin:miter;stroke:rgb(0%,0%,0%);stroke-opacity:1;stroke-miterlimit:10;" d="M 158.53125 171.023438 L 146.941406 157.273438 "/>
<path style="fill:none;stroke-width:1.2;stroke-linecap:butt;stroke-linejoin:miter;stroke:rgb(0%,0%,100%);stroke-opacity:1;stroke-miterlimit:10;" d="M 176.234375 167.863281 L 167.382812 169.445312 "/>
<path style="fill:none;stroke-width:1.2;stroke-linecap:butt;stroke-linejoin:miter;stroke:rgb(0%,0%,0%);stroke-opacity:1;stroke-miterlimit:10;" d="M 167.382812 169.445312 L 158.53125 171.023438 "/>
<path style="fill:none;stroke-width:1.2;stroke-linecap:butt;stroke-linejoin:miter;stroke:rgb(0%,0%,0%);stroke-opacity:1;stroke-miterlimit:10;" d="M 146.941406 157.273438 L 138.089844 158.851562 "/>
<path style="fill:none;stroke-width:1.2;stroke-linecap:butt;stroke-linejoin:miter;stroke:rgb(0%,0%,100%);stroke-opacity:1;stroke-miterlimit:10;" d="M 138.089844 158.851562 L 129.238281 160.429688 "/>
<path style="fill:none;stroke-width:1.2;stroke-linecap:butt;stroke-linejoin:miter;stroke:rgb(0%,0%,0%);stroke-opacity:1;stroke-miterlimit:10;" d="M 145.914062 161.753906 L 138.832031 163.015625 "/>
<path style="fill:none;stroke-width:1.2;stroke-linecap:butt;stroke-linejoin:miter;stroke:rgb(0%,0%,100%);stroke-opacity:1;stroke-miterlimit:10;" d="M 138.832031 163.015625 L 131.753906 164.28125 "/>
<path style="fill:none;stroke-width:1.2;stroke-linecap:butt;stroke-linejoin:miter;stroke:rgb(0%,0%,0%);stroke-opacity:1;stroke-miterlimit:10;" d="M 146.941406 157.273438 L 150 148.816406 "/>
<path style="fill:none;stroke-width:1.2;stroke-linecap:butt;stroke-linejoin:miter;stroke:rgb(0%,0%,100%);stroke-opacity:1;stroke-miterlimit:10;" d="M 150 148.816406 L 153.058594 140.359375 "/>
<path style=" stroke:none;fill-rule:nonzero;fill:rgb(100%,100%,100%);fill-opacity:1;" d="M 126.238281 154.929688 L 133.238281 154.929688 L 133.238281 165.929688 L 126.238281 165.929688 Z M 126.238281 154.929688 "/>
<g style="fill:rgb(0%,0%,100%);fill-opacity:1;">
  <use xlink:href="#glyph0-2" x="126.238281" y="163.592773"/>
</g>
<path style="fill:none;stroke-width:1.2;stroke-linecap:butt;stroke-linejoin:miter;stroke:rgb(0%,0%,100%);stroke-opacity:1;stroke-miterlimit:10;" d="M 153.058594 140.359375 L 161.910156 138.78125 "/>
<path style="fill:none;stroke-width:1.2;stroke-linecap:butt;stroke-linejoin:miter;stroke:rgb(0%,0%,0%);stroke-opacity:1;stroke-miterlimit:10;" d="M 161.910156 138.78125 L 170.761719 137.203125 "/>
<path style="fill:none;stroke-width:1.2;stroke-linecap:butt;stroke-linejoin:miter;stroke:rgb(0%,0%,100%);stroke-opacity:1;stroke-miterlimit:10;" d="M 153.058594 140.359375 L 147.265625 133.484375 "/>
<path style="fill:none;stroke-width:1.2;stroke-linecap:butt;stroke-linejoin:miter;stroke:rgb(0%,0%,0%);stroke-opacity:1;stroke-miterlimit:10;" d="M 147.265625 133.484375 L 141.46875 126.609375 "/>
<path style=" stroke:none;fill-rule:nonzero;fill:rgb(100%,100%,100%);fill-opacity:1;" d="M 150.058594 134.859375 L 157.058594 134.859375 L 157.058594 145.859375 L 150.058594 145.859375 Z M 150.058594 134.859375 "/>
<g style="fill:rgb(0%,0%,100%);fill-opacity:1;">
  <use xlink:href="#glyph0-2" x="150.058594" y="143.522461"/>
</g>
<path style="fill:none;stroke-width:1.2;stroke-linecap:butt;stroke-linejoin:miter;stroke:rgb(0%,0%,0%);stroke-opacity:1;stroke-miterlimit:10;" d="M 172.75 137.921875 L 175.808594 129.464844 "/>
<path style="fill:none;stroke-width:1.2;stroke-linecap:butt;stroke-linejoin:miter;stroke:rgb(100%,0%,0%);stroke-opacity:1;stroke-miterlimit:10;" d="M 175.808594 129.464844 L 178.867188 121.011719 "/>
<path style="fill:none;stroke-width:1.2;stroke-linecap:butt;stroke-linejoin:miter;stroke:rgb(0%,0%,0%);stroke-opacity:1;stroke-miterlimit:10;" d="M 168.773438 136.480469 L 171.828125 128.027344 "/>
<path style="fill:none;stroke-width:1.2;stroke-linecap:butt;stroke-linejoin:miter;stroke:rgb(100%,0%,0%);stroke-opacity:1;stroke-miterlimit:10;" d="M 171.828125 128.027344 L 174.886719 119.570312 "/>
<path style="fill:none;stroke-width:1.2;stroke-linecap:butt;stroke-linejoin:miter;stroke:rgb(0%,0%,0%);stroke-opacity:1;stroke-miterlimit:10;" d="M 170.761719 137.203125 L 182.347656 150.953125 "/>
<path style=" stroke:none;fill-rule:nonzero;fill:rgb(100%,100%,100%);fill-opacity:1;" d="M 172.878906 114.789062 L 180.878906 114.789062 L 180.878906 125.789062 L 172.878906 125.789062 Z M 172.878906 114.789062 "/>
<g style="fill:rgb(100%,0%,0%);fill-opacity:1;">
  <use xlink:href="#glyph0-1" x="172.878906" y="123.452148"/>
</g>
<path style="fill:none;stroke-width:1.2;stroke-linecap:butt;stroke-linejoin:miter;stroke:rgb(0%,0%,0%);stroke-opacity:1;stroke-miterlimit:10;" d="M 182.347656 150.953125 L 179.289062 159.410156 "/>
<path style="fill:none;stroke-width:1.2;stroke-linecap:butt;stroke-linejoin:miter;stroke:rgb(0%,0%,100%);stroke-opacity:1;stroke-miterlimit:10;" d="M 179.289062 159.410156 L 176.234375 167.863281 "/>
<path style="fill:none;stroke-width:1.2;stroke-linecap:butt;stroke-linejoin:miter;stroke:rgb(0%,0%,0%);stroke-opacity:1;stroke-miterlimit:10;" d="M 177.757812 151.207031 L 175.3125 157.96875 "/>
<path style="fill:none;stroke-width:1.2;stroke-linecap:butt;stroke-linejoin:miter;stroke:rgb(0%,0%,100%);stroke-opacity:1;stroke-miterlimit:10;" d="M 175.3125 157.96875 L 172.867188 164.734375 "/>
<path style="fill:none;stroke-width:1.2;stroke-linecap:butt;stroke-linejoin:miter;stroke:rgb(0%,0%,0%);stroke-opacity:1;stroke-miterlimit:10;" d="M 182.347656 150.953125 L 200.050781 147.792969 "/>
<path style=" stroke:none;fill-rule:nonzero;fill:rgb(100%,100%,100%);fill-opacity:1;" d="M 173.234375 162.363281 L 180.234375 162.363281 L 180.234375 173.363281 L 173.234375 173.363281 Z M 173.234375 162.363281 "/>
<g style="fill:rgb(0%,0%,100%);fill-opacity:1;">
  <use xlink:href="#glyph0-2" x="173.234375" y="171.026367"/>
</g>
<path style="fill:none;stroke-width:1.2;stroke-linecap:butt;stroke-linejoin:miter;stroke:rgb(0%,0%,0%);stroke-opacity:1;stroke-miterlimit:10;" d="M 200.050781 147.792969 L 211.640625 161.546875 "/>
<path style="fill:none;stroke-width:1.2;stroke-linecap:butt;stroke-linejoin:miter;stroke:rgb(0%,0%,0%);stroke-opacity:1;stroke-miterlimit:10;" d="M 211.640625 161.546875 L 229.34375 158.386719 "/>
<path style="fill:none;stroke-width:1.2;stroke-linecap:butt;stroke-linejoin:miter;stroke:rgb(0%,0%,0%);stroke-opacity:1;stroke-miterlimit:10;" d="M 229.34375 158.386719 L 240.929688 172.140625 "/>
<path style="fill:none;stroke-width:1.2;stroke-linecap:butt;stroke-linejoin:miter;stroke:rgb(0%,0%,0%);stroke-opacity:1;stroke-miterlimit:10;" d="M 233.738281 157.035156 L 243.007812 168.039062 "/>
<path style="fill:none;stroke-width:1.2;stroke-linecap:butt;stroke-linejoin:miter;stroke:rgb(0%,0%,0%);stroke-opacity:1;stroke-miterlimit:10;" d="M 235.460938 141.476562 L 229.34375 158.386719 "/>
<path style="fill:none;stroke-width:1.2;stroke-linecap:butt;stroke-linejoin:miter;stroke:rgb(0%,0%,0%);stroke-opacity:1;stroke-miterlimit:10;" d="M 240.929688 172.140625 L 258.632812 168.980469 "/>
<path style="fill:none;stroke-width:1.2;stroke-linecap:butt;stroke-linejoin:miter;stroke:rgb(0%,0%,0%);stroke-opacity:1;stroke-miterlimit:10;" d="M 258.632812 168.980469 L 264.75 152.070312 "/>
<path style="fill:none;stroke-width:1.2;stroke-linecap:butt;stroke-linejoin:miter;stroke:rgb(0%,0%,0%);stroke-opacity:1;stroke-miterlimit:10;" d="M 255.265625 165.851562 L 260.160156 152.320312 "/>
<path style="fill:none;stroke-width:1.2;stroke-linecap:butt;stroke-linejoin:miter;stroke:rgb(0%,0%,0%);stroke-opacity:1;stroke-miterlimit:10;" d="M 264.75 152.070312 L 253.164062 138.316406 "/>
<path style="fill:none;stroke-width:1.2;stroke-linecap:butt;stroke-linejoin:miter;stroke:rgb(0%,0%,0%);stroke-opacity:1;stroke-miterlimit:10;" d="M 253.164062 138.316406 L 235.460938 141.476562 "/>
<path style="fill:none;stroke-width:1.2;stroke-linecap:butt;stroke-linejoin:miter;stroke:rgb(0%,0%,0%);stroke-opacity:1;stroke-miterlimit:10;" d="M 252.136719 142.800781 L 237.972656 145.328125 "/>
<path style="fill:none;stroke-width:1.2;stroke-linecap:butt;stroke-linejoin:miter;stroke:rgb(0%,0%,0%);stroke-opacity:1;stroke-miterlimit:10;" d="M 141.46875 126.609375 L 124.558594 120.492188 "/>
<path style="fill:none;stroke-width:1.2;stroke-linecap:butt;stroke-linejoin:miter;stroke:rgb(0%,0%,0%);stroke-opacity:1;stroke-miterlimit:10;" d="M 138.3125 108.90625 L 141.46875 126.609375 "/>
<path style="fill:none;stroke-width:1.2;stroke-linecap:butt;stroke-linejoin:miter;stroke:rgb(0%,0%,0%);stroke-opacity:1;stroke-miterlimit:10;" d="M 124.558594 120.492188 L 138.3125 108.90625 "/>
</g>
</svg>

<svg xmlns="http://www.w3.org/2000/svg" xmlns:xlink="http://www.w3.org/1999/xlink" width="300pt" height="300pt" viewBox="0 0 300 300"><defs><symbol overflow="visible"><path d="M.453 1.594v-7.938h4.5v7.938zm.5-.5h3.5v-6.938h-3.5zm0 0"/></symbol><symbol overflow="visible" id="a"><path d="M3.547-5.953c-.65 0-1.164.242-1.547.72-.375.48-.563 1.13-.563 1.952 0 .835.188 1.49.563 1.967.383.48.898.72 1.547.72.644 0 1.156-.24 1.53-.72.376-.476.564-1.132.564-1.968 0-.822-.187-1.474-.562-1.954-.375-.477-.887-.72-1.53-.72zm0-.734c.914 0 1.648.312 2.203.937.55.617.828 1.438.828 2.47 0 1.042-.277 1.87-.828 2.483-.555.617-1.29.922-2.203.922-.93 0-1.668-.305-2.22-.922C.774-1.41.5-2.237.5-3.28c0-1.033.273-1.853.828-2.47.55-.625 1.29-.938 2.22-.938zm0 0"/></symbol><symbol overflow="visible" id="b"><path d="M.89-6.563H2.08l2.906 5.485v-5.484h.86V0H4.656L1.75-5.484V0H.89zm0 0"/></symbol><symbol overflow="visible" id="c"><path d="M.89-6.563h.876v2.688H5v-2.688h.89V0H5v-3.125H1.766V0H.89zm0 0"/></symbol></defs><g><path fill="#fff" d="M0 0h300v300H0z"/><path d="M35.25 145.563l5.793 6.878" stroke-width="1.2" stroke="#000" stroke-miterlimit="10" fill="none"/><path d="M41.043 152.44l5.793 6.876M46.836 159.316l8.852-1.582" stroke-width="1.2" stroke="#f00" stroke-miterlimit="10" fill="none"/><path d="M55.688 157.734l8.85-1.578" stroke-width="1.2" stroke="#000" stroke-miterlimit="10" fill="none"/><path d="M42.836 153.816h8v11h-8zm0 0" fill="#fff"/><use xlink:href="#a" x="42.836" y="162.479" fill="#f00"/><path d="M64.54 156.156l6.116-16.91M69.133 155.906l4.89-13.53M76.13 169.91l-11.59-13.754M70.656 139.246l17.703-3.16M88.36 136.086l11.59 13.754M86.28 140.188l9.275 11.003M99.95 149.84l-6.118 16.91M93.832 166.75l-17.703 3.16M91.316 162.898l-14.16 2.528M93.832 166.75l5.793 6.875" stroke-width="1.2" stroke="#000" stroke-miterlimit="10" fill="none"/><path d="M99.625 173.625l5.793 6.875M105.418 180.5l8.852-1.578" stroke-width="1.2" stroke="#00f" stroke-miterlimit="10" fill="none"/><path d="M114.27 178.922l8.85-1.578" stroke-width="1.2" stroke="#000" stroke-miterlimit="10" fill="none"/><path d="M98.418 175h14v11h-14zm0 0" fill="#fff"/><g fill="#00f"><use xlink:href="#b" x="98.418" y="183.663"/><use xlink:href="#c" x="105.396" y="183.663"/></g><path d="M123.12 177.344l5.798 6.875" stroke-width="1.2" stroke="#000" stroke-miterlimit="10" fill="none"/><path d="M128.918 184.22l5.793 6.874" stroke-width="1.2" stroke="#00f" stroke-miterlimit="10" fill="none"/><path d="M127.516 175.992l4.636 5.5" stroke-width="1.2" stroke="#000" stroke-miterlimit="10" fill="none"/><path d="M132.152 181.492l4.637 5.5M129.238 160.43l-3.058 8.457" stroke-width="1.2" stroke="#00f" stroke-miterlimit="10" fill="none"/><path d="M126.18 168.887l-3.06 8.457" stroke-width="1.2" stroke="#000" stroke-miterlimit="10" fill="none"/><path d="M134.71 191.094l8.852-1.578" stroke-width="1.2" stroke="#00f" stroke-miterlimit="10" fill="none"/><path d="M143.563 189.516l8.85-1.582" stroke-width="1.2" stroke="#000" stroke-miterlimit="10" fill="none"/><path d="M131.71 185.594h7v11h-7zm0 0" fill="#fff"/><use xlink:href="#b" x="131.711" y="194.257" fill="#00f"/><path d="M152.414 187.934l6.117-16.91M149.047 184.805l4.89-13.528M158.53 171.023l-11.59-13.75" stroke-width="1.2" stroke="#000" stroke-miterlimit="10" fill="none"/><path d="M176.234 167.863l-8.85 1.582" stroke-width="1.2" stroke="#00f" stroke-miterlimit="10" fill="none"/><path d="M167.383 169.445l-8.852 1.578M146.94 157.273l-8.85 1.58" stroke-width="1.2" stroke="#000" stroke-miterlimit="10" fill="none"/><path d="M138.09 158.852l-8.852 1.578" stroke-width="1.2" stroke="#00f" stroke-miterlimit="10" fill="none"/><path d="M145.914 161.754l-7.082 1.262" stroke-width="1.2" stroke="#000" stroke-miterlimit="10" fill="none"/><path d="M138.832 163.016l-7.078 1.265" stroke-width="1.2" stroke="#00f" stroke-miterlimit="10" fill="none"/><path d="M146.94 157.273l3.06-8.457" stroke-width="1.2" stroke="#000" stroke-miterlimit="10" fill="none"/><path d="M150 148.816l3.06-8.457" stroke-width="1.2" stroke="#00f" stroke-miterlimit="10" fill="none"/><path d="M126.238 154.93h7v11h-7zm0 0" fill="#fff"/><use xlink:href="#b" x="126.238" y="163.593" fill="#00f"/><path d="M153.06 140.36l8.85-1.58" stroke-width="1.2" stroke="#00f" stroke-miterlimit="10" fill="none"/><path d="M161.91 138.78l8.852-1.577" stroke-width="1.2" stroke="#000" stroke-miterlimit="10" fill="none"/><path d="M153.06 140.36l-5.794-6.876" stroke-width="1.2" stroke="#00f" stroke-miterlimit="10" fill="none"/><path d="M147.266 133.484l-5.797-6.875" stroke-width="1.2" stroke="#000" stroke-miterlimit="10" fill="none"/><path d="M150.06 134.86h7v11h-7zm0 0" fill="#fff"/><use xlink:href="#b" x="150.059" y="143.522" fill="#00f"/><path d="M172.75 137.922l3.06-8.457" stroke-width="1.2" stroke="#000" stroke-miterlimit="10" fill="none"/><path d="M175.81 129.465l3.057-8.453" stroke-width="1.2" stroke="#f00" stroke-miterlimit="10" fill="none"/><path d="M168.773 136.48l3.055-8.453" stroke-width="1.2" stroke="#000" stroke-miterlimit="10" fill="none"/><path d="M171.828 128.027l3.06-8.457" stroke-width="1.2" stroke="#f00" stroke-miterlimit="10" fill="none"/><path d="M170.762 137.203l11.586 13.75" stroke-width="1.2" stroke="#000" stroke-miterlimit="10" fill="none"/><path d="M172.88 114.79h8v11h-8zm0 0" fill="#fff"/><use xlink:href="#a" x="172.879" y="123.452" fill="#f00"/><path d="M182.348 150.953l-3.06 8.457" stroke-width="1.2" stroke="#000" stroke-miterlimit="10" fill="none"/><path d="M179.29 159.41l-3.056 8.453" stroke-width="1.2" stroke="#00f" stroke-miterlimit="10" fill="none"/><path d="M177.758 151.207l-2.446 6.762" stroke-width="1.2" stroke="#000" stroke-miterlimit="10" fill="none"/><path d="M175.313 157.97l-2.446 6.764" stroke-width="1.2" stroke="#00f" stroke-miterlimit="10" fill="none"/><path d="M182.348 150.953l17.703-3.16" stroke-width="1.2" stroke="#000" stroke-miterlimit="10" fill="none"/><path d="M173.234 162.363h7v11h-7zm0 0" fill="#fff"/><use xlink:href="#b" x="173.234" y="171.026" fill="#00f"/><path d="M200.05 147.793l11.59 13.754M211.64 161.547l17.704-3.16M229.344 158.387l11.586 13.754M233.738 157.035l9.27 11.004M235.46 141.477l-6.116 16.91M240.93 172.14l17.703-3.16M258.633 168.98l6.117-16.91M255.266 165.852l4.894-13.532M264.75 152.07l-11.586-13.754M253.164 138.316l-17.703 3.16M252.137 142.8l-14.164 2.528M141.47 126.61l-16.91-6.118M138.313 108.906l3.156 17.703M124.56 120.492l13.752-11.586" stroke-width="1.2" stroke="#000" stroke-miterlimit="10" fill="none"/></g></svg>
